X:1
T:Duo en sol mineur\.i
T:From "Nouvelle M\'ethode th\'eoretique et pratique"
C:Fran\ccois Devienne\.i
B:Devienne: Nouvelle M\'ethode (c. 1800)
Z:Transcribed by Frank Nordberg - http://www.musicaviva.com
F:http://abc.musicaviva.com/tunes/devienne-francois/devienne-nouvelle17.abc
V:1 Program 1 73 %Flute
V:2 Program 1 73 %Flute
M:6/8
L:1/8
K:Gm
V:1
("^Andante"ded) (bag)|^f2(g/a/) g2d|{=f}edc {d}cBA|
(c/B/A/G/^F/G/) G2z|A2A {B}(AGA)|(b2=B) (ceg)|f(b/a/)(g/f/) (f/e/)(d/f/)(e/c/)|
(c3B2)z::(d2c) (=Bd).f|(Gg).f e2z|(ee').d' (d'c').b|(b3a2)z|
(ded) (bag)|^f2(g/a/) (g/d'/c'/b/a/g/)|(b/a/d'/c'/b/a/) (ga).^f|(ag2)z:|
V:2
B3(GAB)|(c3B2)=B|{d}(c_BA) {B}(AG^F)|
G2 z (g/d/c/B/A/G/)|=F3E3|(D3 E2)e|d(g/f/)(e/d/) (d/c/)(B/d/)(c/A/)|
(A3 B2)z::F3_A3|G2=B (ce).d|.c(cB) (B=A).G|(g3  f).d.c|
B3 (GAB)|(c3 B2)B|c2(d/c/) (Bc).A|(c3B2)z:|
W:
W:
W:  From Musica Viva - http://www.musicaviva.com
W:  the Internet center for free sheet music downloads.
